X: 18908
T: Inchindown, The
R: jig
M: 6/8
K: Gmajor
|:GD/D/E GAB|deg edB|AEA ~c3|eag {g}fed|
BGB dB/c/d|~g3 bgd|eab age|1 dBA G (BA):|2 dBA G (ef)||
|:gBc def|~g3 bgd|ece ef/f/g|fdf fga|
gBc def|ge/f/g bgd|eab age|1 dBA G (ef):|2 dba G3||

